X:1
T:Jesu, Jesu Du Mein Hirt, 77.77.77
T:Paul Heinlein, 1676
T:Jesu, Jesu Du Mein Hirt, 77.77.77
T:Public Domain
C:Paul Heinlein, 1676
Z:Public Domain
%%score ( 1 2 ) ( 3 4 )
L:1/8
M:4/4
K:F
V:1 treble 
V:2 treble 
V:3 bass 
V:4 bass 
V:1
 [DA]2 [DA]2 [Dd]2 [Fc]2 | F2 z B [FA]4 | [FA]2 [Gc]2 [F=B]2 (EF) | E2 z ^G [EA]4 | %4
 [FA]2 [Gc]2 (BA)GF | [FA]2 [EG]2 F4 | [CE]2 [CG]2 ([DF][CE])(DC) | [CE]2 [=B,D]2 C4 | %8
 [EG]3 [EG] [Fc]2 [GB]2 | [FA]3 [FA] (F2 E2) | [DG]2 (DE) [A,F]2 [DF]2 | D2 z E D4 x |] %12
V:2
 x8 | B3 E2 x3 | x6 A2 | A3 E2 x3 | x4 F2 D2 | x4 F4 | x6 A,2 | x4 C4 | x8 | x4 G4 | x2 B,2 x4 | %11
 E3 (^C2 D4) |] %12
V:3
 [D,F,]2 (D,C,) [B,,B,]2 [A,,C]2 | [G,,D]2 [C,C]2 [F,C]4 | [F,C]2 [E,C]2 [D,D]2 ([C,E][D,D]) | %3
 [E,=B,]2 [E,B,]2 [A,,^C]4 | [F,C]2 [E,G,]2 [D,B,]2 [B,,D]2 | C,2 z B, [F,A,]4 | %6
 A,2 [E,G,]2 ([D,A,][E,G,]) [F,A,]2 | G,2 (G,F,) [C,E,]4 | [C,C]3 [C,C] [D,A,]2 [E,G,]2 | %9
 (A,B,)([A,,C][B,,D]) [C,G,]4 | [G,,B,]2 (B,,C,) ([D,F,][E,G,])(F,G,) | A,2 [A,,A,]2 [D,F,]4 x |] %12
V:4
 x2 F,2 x4 | x8 | x8 | x8 | x8 | C3 C,2 x3 | x8 | x2 G,,2 x4 | x8 | F,2 x6 | x2 G,2 x A,2 x | %11
 A,2 x7 |] %12

